public/folder.svg

<svg width="256" height="256" xmlns="http://www.w3.org/2000/svg">

 <g>
  <title>background</title>
  <rect fill="none" id="canvas_background" height="602" width="802" y="-1" x="-1"/>
 </g>
 <g>
  <title>Layer 1</title>
  <g id="svg_1" opacity="0.2">
   <path id="svg_2" d="m98.34315,50.34315l29.65685,29.65685l-96,0l0,-24a8,8 0 0 1 8,-8l52.68629,0a8,8 0 0 1 5.65686,2.34315z"/>
  </g>
  <path fill="white" stroke="#000000" stroke-opacity="0" id="svg_3" d="m216,72l-84.68652,0l-27.31348,-27.31348a15.89354,15.89354 0 0 0 -11.31348,-4.68652l-52.68652,0a16.01833,16.01833 0 0 0 -16,16l0,144.61523a15.40193,15.40193 0 0 0 15.38477,15.38477l177.5039,0a15.12831,15.12831 0 0 0 15.11133,-15.11133l0,-112.88867a16.01833,16.01833 0 0 0 -16,-16zm-123.31348,-16l16,16l-68.68652,0l0,-16l52.68652,0zm123.31348,144l-176,0l0,-112l176,0l0,112z"/>
 </g>
</svg>

<svg id="Flat" xmlns="http://www.w3.org/2000/svg" viewBox="0 0 256 256">
  <g opacity="0.2">
    <path d="M98.34315,50.34315,128,80H32V56a8,8,0,0,1,8-8H92.68629A8,8,0,0,1,98.34315,50.34315Z"/>
  </g>
  <path d="M216,72H131.31348L104,44.68652A15.89354,15.89354,0,0,0,92.68652,40H40A16.01833,16.01833,0,0,0,24,56V200.61523A15.40193,15.40193,0,0,0,39.38477,216h177.5039A15.12831,15.12831,0,0,0,232,200.88867V88A16.01833,16.01833,0,0,0,216,72ZM92.68652,56l16,16H40V56ZM216,200H40V88H216Z"/>
</svg>
